X:1
T:Come, Weary Travelers
T:George A. Burdett
T:Come, Weary Travelers
T:Public Domain
T:Public Domain
C:George A. Burdett
Z:Public Domain
%%score ( 1 2 ) ( 3 4 )
L:1/8
M:2/4
K:C
V:1 treble 
V:2 treble 
V:3 bass 
V:4 bass 
V:1
"^With feeling" [Ec]2 [GB][FA] | [EG]>[CE] [EG]2 | [FA]2 [EG][DF] | [CF]2 [CE]2 | [CE]2 [CF][CG] | %5
w: 1.~Come, wea- ry|trav- el- ers,|come from the|by- ways;|Come to the|
w: 2.~Ma- ny are|care- less- ly|tread- ing the|broad way,|Heed- less and|
w: 3.~Nar- row the|way— but so|spa- cious is|Heav- en;|Rug- ged the|
 [CA] [FA]2 [GA] | [^Fd]2 A[A=c] | (G2 =F2) | [Ec]2 [^DB][DA] | ([EG][CE]) [EG]2 | [FA]2 [EG][DF] | %11
w: right way that|leads un- to|Nar- *|it will be,|rug- * ged|it may be,|
w: scorn- ful of|where it must|Down *|to sor- row,|out * in-|to dark- ness—|
w: way— but the|rest is so|Blest *|the pilgrim- age|on- * ward|and up- ward—|
 [DF]2 [DE]2 | [CE]2 [E^F][EG] | ([EA][EB]) [Ec][EA] | [EG]E [^DG]2 | (E2 G2) | [Gc]2 [EG][G_B] | %17
w: But ’tis|the high- way|the * saints have|all trod. Come|the *|way, come to|
w: But haste|to the~turn- ing,|for * great is|the need! Come|the *|way, come to|
w: What of|the toil when|the * bliss is|com- plete? This|the *|way, this is|
 [G_B]2 [FA] z | [^Fd]2 [FA][Ac] | [Gc]2 [GB] z | [^Ge]2 B[Gd] | ([Ac][=GB]) [FA][Ad] | %22
w: the true|way, Come to|the Christ|way, and walk|here- * in. *|
w: the bright|way, Come to|the Christ|way, and walk|here- * in. *|
w: the glad|way, This is|the bright|way, come walk|here- * in. *|
 [Gc][GA] (GF) | [Ec]4 |] %24
w: ||
w: ||
w: ||
V:2
 x4 | x4 | x4 | x4 | x4 | x4 | x2 A x | B4 | x4 | x4 | x4 | x4 | x4 | x4 | x E x2 | E4 | x4 | x4 | %18
w: ||||||God;|row|||||||to|safe|||
w: ||||||lead—|in-|||||||to|right|||
w: ||||||sweet.|is|||||||is|safe|||
 x4 | x4 | x2 B x | x4 | x2 B2 | x4 |] %24
w: ||ye||||
w: ||ye||||
w: ||ye||||
V:3
 [C,G,]2 [C,E,][C,F,] | [C,G,]>[C,C] [C,C]2 | [F,C]2 [G,B,][G,B,] | [C,A,]2 [C,G,]2 | %4
 [C,G,]2 [D,G,][E,C] | [F,C] [F,C]2 [E,C] | [D,D]2 [^F,D][D,D] | (D2 G,2) | [C,G,]2 [C,^F,][C,F,] | %9
 [C,G,]2 [C,C]2 | [F,A,]2 [G,B,][G,B,] | [^G,B,]2 [G,B,]2 | [A,C]2 [A,C][G,C] | %13
 (CB,) [=F,A,][F,C] | [B,,B,][B,,G,] [B,,A,]2 | (G,2 B,2) | [E,C]2 [C,C][E,C] | [F,C]2 ([F,C]_E,) | %18
 [D,A,]2 [D,D][^F,D] | [G,D]2 ([G,D]=F,) | [E,B,]2 [^G,E][E,E] | ([A,E][E,C]) [F,C][F,F] | %22
 [G,E][G,C] [G,D]2 | [C,C]4 |] %24
V:4
 x4 | x4 | x4 | x4 | x4 | x4 | x4 | G,4 | x4 | x4 | x4 | x4 | x4 | ^F,2 x2 | x4 | E,4 | x4 | x4 | %18
 x4 | x4 | x4 | x4 | x4 | x4 |] %24

